frontend/public/icons/tokyo/14_Shibuya.svg

<svg xmlns="http://www.w3.org/2000/svg" width="500" height="525.52502" version="1.0"><path d="M222.217 0a276.844 276.844 0 0 0-55.565 11.33v30.04C69.607 75.727 0 168.324 0 277.088c0 128.604 97.28 234.604 222.217 248.437V497.83c-36.546-4.562-70.36-17.987-99.192-38.07l99.323-57.389-88.34-153.065h232.245L278 402.11l99.366 57.345c-28.921 20.24-62.865 33.79-99.583 38.374v27.696C402.72 511.692 500 405.692 500 277.088c0-108.764-69.607-201.36-166.652-235.718V11.33A276.844 276.844 0 0 0 277.783 0v193.74h-55.566Zm-55.565 70.802V193.74H43.714C66.3 137.936 110.848 93.387 166.652 70.802Zm166.696 0C389.152 93.387 433.7 137.936 456.286 193.74H333.348ZM29.258 249.305h72.713l68.588 118.814-90.64 52.31c-32.684-38.724-52.397-88.739-52.397-143.341 0-9.415.6-18.674 1.737-27.783zm369.032 0h72.451a224.025 224.025 0 0 1 1.737 27.783c0 54.458-19.608 104.356-52.136 143.037l-90.51-52.266Z" style="fill:#fff;fill-opacity:1;stroke:none;stroke-width:1.38913"/></svg>

<?xml version="1.0"?>
<svg width="500" height="525.52502" xmlns="http://www.w3.org/2000/svg" xmlns:svg="http://www.w3.org/2000/svg" version="1.0">
 <g class="layer">
  <title>Layer 1</title>
  <path d="m222.22,0a276.84,276.84 0 0 0 -55.57,11.33l0,30.04c-97.04,34.36 -166.65,126.95 -166.65,235.72c0,128.6 97.28,234.6 222.22,248.44l0,-27.7c-36.55,-4.56 -70.36,-17.99 -99.2,-38.07l99.33,-57.39l-88.34,-153.06l232.24,0l-88.25,152.8l99.37,57.34c-28.93,20.24 -62.87,33.79 -99.59,38.38l0,27.69c124.94,-13.83 222.22,-119.83 222.22,-248.43c0,-108.77 -69.61,-201.36 -166.65,-235.72l0,-30.04a276.84,276.84 0 0 0 -55.57,-11.33l0,193.74l-55.56,0l0,-193.74zm-55.57,70.8l0,122.94l-122.94,0c22.59,-55.8 67.14,-100.35 122.94,-122.94zm166.7,0c55.8,22.59 100.35,67.14 122.94,122.94l-122.94,0l0,-122.94zm-304.09,178.5l72.71,0l68.59,118.82l-90.64,52.31c-32.69,-38.73 -52.4,-88.74 -52.4,-143.34c0,-9.42 0.6,-18.68 1.74,-27.79zm369.03,0l72.45,0a224.02,224.02 0 0 1 1.74,27.79c0,54.46 -19.61,104.35 -52.14,143.03l-90.51,-52.26l68.46,-118.56z" fill="#000000" id="svg_1" stroke-width="1.39"/>
 </g>
</svg>
